X:1
T:Hear Him Knocking
T:Hear Him Knocking
T:J. Howard Entwisle
T:Johnson Oatman, Jr., 1897
T:Public Domain Courtesy of the Cyber Hymnal™
T:Public Domain Courtesy of the Cyber Hymnal™
C:J. Howard Entwisle
Z:Public Domain
Z:Courtesy of the Cyber Hymnal™
%%score ( 1 2 ) ( 3 4 )
L:1/8
Q:1/4=115
M:4/2
K:Ab
V:1 treble 
V:2 treble 
V:3 bass 
V:4 bass 
V:1
 [CE]2 | [CE]2 [Ec]2 [Ec]3 [DB] [DB] [CA]4 z [EG]2 | [EG] [DF]3 [DA]3 [DF] [CE]4 z2 [CE]2 | %3
w: 1.~A|hand all bruised and bleed- ing Is|knock- ing at the door, Is|
w: 2.~How|oft- en when in sick- ness, Your|bo- dy racked with pain, This|
w: 3.~While|stand- ing by the cas- ket Of|some de- part- ed friend, With|
w: 4.~Why|will you keep Him knock- ing? Why|don’t you let Him in? He’ll|
 ([DE] [DE]3) ([DE]3 [DE]) ([DG]2 [DG]2) [DF]3 [DE] | [CA]8- [CA]2 z4 [CE]2 | %5
w: knocking * at~the * door * of your|heart; * It|
w: knocking * re- * sounded * in your|ears; * How|
w: sorrow * your * heart~was * sick and|sore; * What|
w: fill * your * pathway * with de-|light; * That|
 [CE]2 [Ec]2 [Ec]3 [DB] [DB] [CA]4 z2 [EG]2 | [EG]2 [DF]2 [DA]3 [DF] [CE]4 z2 [CE]2 | %7
w: is the hand of Je- sus, Who|long has knocked be- fore, Though|
w: oft- en in the night- time The|knock would come a- gain, So|
w: caused that train of think- ing Of|how your life would end? That|
w: hand so torn and bleed- ing Will|wash a- way your sin; O|
 [DE]4 [DE]2 [DE]2 [B,G] [B,G]3 [CA]3 [DB] | [CA]12 z2 ||"^Refrain" [_GA]2 | %10
w: oft you have told Him to de-|part.||
w: loud it would fill your soul with|fears.||
w: hand was then knock- ing at the|door.||
w: wel- come the Sav- ior in to-|night!||
 [FA]2 [Fd]2 [Fd]2 [Fd]2 [Fd] [DF]3 z4 | [CE] [Ec]3 [Ec]3 [=D=B] [Ec]4 z2 [Ae]2 | %12
w: ||
w: ||
w: ||
w: ||
 [Ge] [GB]3 [GB]3 [Ac] [Bd]4 [Ac]2 B2 | [Ac]8- [Ac]2 z4 [_GA]2 | %14
w: ||
w: ||
w: ||
w: ||
 [FA]2 [Fd]2 [Fd]3 [Fd] [Fd]2 [DF]4 [DF]2 | [CE]2 [Ec]2 [Ec]3 [=DB] [Ec]4 z2 [Ae]2 | %16
w: ||
w: ||
w: ||
w: ||
 [Ge]4 [GB]2 [Ac]2 [Bd] [Bd]3 !fermata![Ac]3 [EB] | [EA]12 z2 |] %18
w: ||
w: ||
w: ||
w: ||
V:2
 x2 | x16 | x16 | x16 | x16 | x17 | x16 | x16 | x14 || x2 | x16 | x16 | x14 B2 | x16 | x16 | x16 | %16
 x16 | x14 |] %18
V:3
 [A,,A,]2 | [A,,A,]2 [A,,A,]2 [A,,A,]3 [A,,E,] [A,,E,] [A,,E,]4 z [C,A,]2 | %2
w: ~|~ ~ ~ ~ ~ ~ ~|
 [D,A,] [D,A,]3 [D,F,]3 [D,A,] [A,,A,]4 z2 [A,,A,]2 | %3
w: ~ ~ ~ ~ ~ ~|
 ([B,,G,] [B,,G,]3) ([C,G,] [B,,G,]3) E,2 E,2 E,3 E, | [A,,E,]8- [A,,E,]2 z4 [A,,A,]2 | %5
w: ~ * ~ * ~ ~ ~ ~|~ * ~|
 [A,,A,]2 [A,,A,]2 [A,,A,]3 [A,,E,] [A,,E,] [A,,E,]4 z2 [C,A,]2 | %6
w: ~ ~ ~ ~ ~ ~ ~|
 [D,A,]2 [D,A,]2 [D,F,]3 [F,A,] [A,,A,]4 z2 [A,,A,]2 | [B,,G,]4 [B,,G,]2 [B,,G,]2 E, E,3 E,3 E, | %8
w: ~ ~ ~ ~ ~ ~|~ ~ ~ ~ ~ ~ ~|
 [A,,E,]12 z2 || [A,C]2 | [D,D]2 [D,A,]2 [D,A,]2 [D,A,]2 [D,A,] [D,A,]3 z4 | %11
w: O|don’t|you hear Him knock- ing, Knock-|
 [A,,A,] [A,,A,]3 [A,,A,]3 [A,,F,] [A,,E,]4 z2 [A,C]2 | %12
w: ing at the door? He’s knock-|
 [E,B,] [E,E]3 [E,E]3 [E,E] [E,E]4 [F,E]2 [G,E]2 | [A,E]8- [A,E]2 z4 [A,C]2 | %14
w: ing at the door to come in;|He * wants|
 [D,D]2 [D,A,]2 [D,A,]3 [D,A,] [D,A,]2 [D,A,]4 [D,A,]2 | %15
w: an in- vi- ta- tion To cross|
 [A,,A,]2 [A,,A,]2 [A,,A,]3 [A,,F,] [A,,E,]4 z2 [A,C]2 | %16
w: your thres- hold o’er, Then Je-|
 [E,B,]4 [E,E]2 [E,E]2 [E,E] [E,E]3 !fermata![E,E]3 [E,D] | [A,,A,C]12 z2 |] %18
w: sus will save you from all sin.||
V:4
 x2 | x16 | x16 | x8 (E,2 E,2) E,3 E, | x16 | x17 | x16 | x8 E, E,3 E,3 E, | x14 || x2 | x16 | %11
 x16 | x16 | x16 | x16 | x16 | x16 | x14 |] %18

